CSETWebApi/CSETWeb_Api/CSETWeb_ApiCore/Diagram/src/main/webapp/img/lib/ibm/miscellaneous/scalable.svg

<?xml version="1.0" encoding="UTF-8" standalone="no"?>
<svg
   xmlns:dc="http://purl.org/dc/elements/1.1/"
   xmlns:cc="http://creativecommons.org/ns#"
   xmlns:rdf="http://www.w3.org/1999/02/22-rdf-syntax-ns#"
   xmlns:svg="http://www.w3.org/2000/svg"
   xmlns="http://www.w3.org/2000/svg"
   xmlns:sodipodi="http://sodipodi.sourceforge.net/DTD/sodipodi-0.dtd"
   xmlns:inkscape="http://www.inkscape.org/namespaces/inkscape"
   contentScriptType="text/ecmascript"
   zoomAndPan="magnify"
   contentStyleType="text/css"
   id="svg2"
   sodipodi:docname="scalable.svg"
   version="1.1"
   width="40.063866mm"
   preserveAspectRatio="xMidYMid meet"
   inkscape:version="0.91 r13725"
   viewBox="0 0 141.95858 138.75573"
   height="39.15995mm">
  <metadata
     id="metadata4184">
    <rdf:RDF>
      <cc:Work
         rdf:about="">
        <dc:format>image/svg+xml</dc:format>
        <dc:type
           rdf:resource="http://purl.org/dc/dcmitype/StillImage" />
        <dc:title></dc:title>
      </cc:Work>
    </rdf:RDF>
  </metadata>
  <defs
     id="defs4182" />
  <sodipodi:namedview
     pagecolor="#ffffff"
     bordercolor="#666666"
     borderopacity="1"
     objecttolerance="10"
     gridtolerance="10"
     guidetolerance="10"
     inkscape:pageopacity="0"
     inkscape:pageshadow="2"
     inkscape:window-width="1920"
     inkscape:window-height="1018"
     id="namedview4180"
     showgrid="false"
     fit-margin-top="0"
     fit-margin-left="0"
     fit-margin-right="0"
     fit-margin-bottom="0"
     inkscape:zoom="0.54131261"
     inkscape:cx="-377.79372"
     inkscape:cy="366.01501"
     inkscape:window-x="-8"
     inkscape:window-y="-8"
     inkscape:window-maximized="1"
     inkscape:current-layer="svg2" />
  <path
     style="opacity:1;fill:#e7e8e8;fill-opacity:1;fill-rule:evenodd;stroke:none;stroke-width:0.2;stroke-linecap:butt;stroke-linejoin:miter;stroke-miterlimit:4;stroke-dasharray:none;stroke-opacity:1"
     d="M 11.16819,138.75573 C 5.21797,138.75573 0,134.40094 0,127.66549 L 0,12.40281 C 0,4.57526 5.38744,0 11.78308,0 L 129.334,0 C 138.46574,0 141.95858,6.64787 141.95858,12.91402 L 141.95858,125.50024 C 141.95858,132.85013 137.48994,138.75573 130.59364,138.75573 Z"
     id="path4176"
     inkscape:connector-curvature="0" />
  <path
     style="opacity:1;fill:#999999;fill-opacity:1;fill-rule:evenodd;stroke:none;stroke-width:0.2;stroke-linecap:butt;stroke-linejoin:miter;stroke-miterlimit:4;stroke-dasharray:none;stroke-opacity:1"
     d="M 97.84624,16.96564 129.22003,16.96564 129.22003,48.57483 122.35996,48.57483 122.35996,24.17663 97.84624,24.17663 Z M 42.23016,96.37712 42.23016,64.02567 48.65387,64.02567 48.65387,85.26296 86.14575,48.78477 64.69697,48.78477 64.69697,42.66695 96.99002,42.66695 96.99002,74.80846 89.72655,74.80846 89.93339,54.83827 53.23781,90.73758 75.3928,90.73758 75.3928,96.37712 Z M 17.8214,124.34712 17.8214,93.6631 25.10443,93.6631 25.10443,118.20075 50.00948,118.20075 50.00948,124.34712 Z"
     id="path4178"
     inkscape:connector-curvature="0" />
</svg>

<svg xmlns="http://www.w3.org/2000/svg" contentScriptType="text/ecmascript" zoomAndPan="magnify" contentStyleType="text/css" width="151.423" preserveAspectRatio="xMidYMid meet" viewBox="0 0 141.959 138.756" height="148.006" fill-rule="evenodd"><path d="M11.168 138.756C5.218 138.756 0 134.4 0 127.665V12.403C0 4.575 5.387 0 11.783 0h117.55c9.132 0 12.625 6.648 12.625 12.914V125.5c0 7.35-4.47 13.255-11.365 13.255z" fill="#e7e8e8"/><path d="M97.846 16.966h31.374v31.61h-6.86V24.177H97.846zM42.23 96.377v-32.35h6.424v21.237l37.492-36.478h-21.45v-6.118H97v32.142h-7.263l.207-19.97-36.696 35.9h22.155v5.64zm-24.41 27.97V93.663h7.283V118.2H50.01v6.146z" fill="#999"/></svg>
